X:55
T:Harvest Home Hornpipe
C:Joe Buchanan's Scottish Tome - Page 239.2
I:239 2
Z:Carl Allison
R:Hornpipe
L:1/8
M:4/4
K:D
A2 | "D"D>AF>A D>AF>A | "D"d>ef>e d>cB>A | "A7"e>A"D"f>A "Em"g>A"D"f>A | "A"((3efe) ((3dcB) ((3ABA) ((3GFE) |
"D"D>AF>A D>AF>A | "D"d>ef>e d>cB>A | "A7"e>Af>A g>ec>e | "D"d2 f2 d2 :|
c>d | "A7"e>A ((3AAA) "D"fA ((3AAA) | "A7"gA ((3AAA) "D"fA ((3AAA) | "A7"e>Af>A g>Af>A | "A7"((3efe) ((3dcB) ((3ABA) ((3GFE) |
"D"D>AF>A D>AF>A | "D"d>ef>e d>cB>A | "A7"e>A f>A g>ec>e | "D"d2 f2 d2 :|

